svg/u1f468_1f3fe_200d_1f9b1.svg

<svg viewBox="0 0 128 128" xmlns="http://www.w3.org/2000/svg">
  <linearGradient id="shirt_1_" gradientTransform="matrix(1 0 0 -1 0 130)" gradientUnits="userSpaceOnUse" x1="64" x2="64" y1="35.7786" y2="8.0196">
    <stop offset="0" stop-color="#00BFA5"/>
    <stop offset="0.7047" stop-color="#00B29A"/>
    <stop offset="1" stop-color="#00AB94"/>
  </linearGradient>
  <path id="shirt" d="M114.39,119.87v4.07H13.61v-4.07c0-12.39,12.12-19.81,27.92-23.2 c7.01-1.52,14.75-2.23,22.47-2.24h0.12c7.66,0,15.31,0.79,22.24,2.37C102.25,100.4,114.39,108.12,114.39,119.87z" fill="url(#shirt_1_)"/>
  <path id="neck_1_" d="M72.89,90.06H55.1v9.98c0,4.51,3.62,8.17,8.09,8.17h1.62c4.46,0,8.09-3.66,8.09-8.17 L72.89,90.06L72.89,90.06z" fill="#7A4C32"/>
  <g id="face">
    <path id="ears" d="M91.34,50.42H36.69c-5.89,0-10.71,5.14-10.71,11.41c0,6.28,4.82,11.41,10.71,11.41h54.65 c5.89,0,10.71-5.14,10.71-11.41C102.05,55.55,97.23,50.42,91.34,50.42z" fill="#7A4C32"/>
    <path id="head" d="M64.02,10.05c-17.4,0-33.52,18.61-33.52,45.39c0,26.64,16.61,39.81,33.52,39.81 s33.52-13.17,33.52-39.81C97.54,28.66,81.42,10.05,64.02,10.05z" fill="#A56C43"/>
    <g id="eyebrows_1_">
      <path d="M39.84,50.73c3.18-4.51,10.66-4.66,14.41-0.82c0.65,0.67,1.34,1.53,0.85,2.5 c-0.54,1.07-1.65,0.9-2.56,0.53c-2.43-0.98-4.94-1.42-7.55-0.89c-1.13,0.23-2.1,0.7-3.17,1.08 C40.38,53.62,38.91,52.12,39.84,50.73z" fill="#42312C"/>
      <path d="M86.29,53.13c-2.23-0.97-4.49-1.53-6.95-1.25c-1.12,0.13-2.22,0.42-3.26,0.83 c-0.83,0.33-1.72,0.86-2.58,0.28c-2.45-1.69,1.89-4.44,3.17-4.99c2.76-1.19,6.05-1.08,8.72,0.31c1.06,0.55,2.21,1.35,2.84,2.4 C89.02,52.02,87.84,53.76,86.29,53.13z" fill="#42312C"/>
    </g>
    <g id="eyes">
      <ellipse cx="47.39" cy="58.8" fill="#42312C" rx="4.93" ry="5.1"/>
      <ellipse cx="80.65" cy="58.8" fill="#42312C" rx="4.93" ry="5.1"/>
    </g>
    <path id="nose" d="M67.87,68.04c-0.11-0.04-0.21-0.07-0.32-0.08h-7.07c-0.11,0.01-0.22,0.04-0.32,0.08 c-0.64,0.26-0.99,0.92-0.69,1.63s1.71,2.69,4.55,2.69c2.84,0,4.25-1.99,4.55-2.69C68.87,68.96,68.51,68.3,67.87,68.04z" fill="#875334"/>
    <path id="mouth" d="M72.44,76.13c-3.19,1.89-13.63,1.89-16.81,0c-1.83-1.09-3.7,0.58-2.94,2.24 c0.75,1.63,6.45,5.42,11.37,5.42S74.6,80,75.35,78.37C76.11,76.7,74.26,75.04,72.44,76.13z" fill="#473530"/>
  </g>
  <path id="hair" d="M102.02,42.16c0.79-1.08,1.06-2.81,0.67-4.38c-0.31-1.26-1-2.21-1.95-2.7 c0.33-0.46,0.93-1.5,0.94-2.96c0.03-2.33-0.94-4.03-2.97-5.19c0.71-3.29-1.28-6.77-4.45-7.77c-0.04-1.71-0.78-3.4-2.06-4.65 c-1.21-1.18-2.74-1.84-4.33-1.85c-0.5-1.6-1.65-2.99-3.18-3.83c-1.47-0.8-3.11-1.01-4.63-0.59c-1.75-2.79-5.49-3.81-8.36-2.28 c-1.73-1.77-4.41-2.39-6.73-1.53l0,0c-0.25,0.1-0.67,0.32-0.97,0.49c-0.3-0.17-0.71-0.39-0.97-0.49l0,0c-2.32-0.86-5-0.24-6.73,1.53 c-2.87-1.53-6.61-0.51-8.36,2.28c-1.53-0.42-3.16-0.22-4.63,0.59c-1.53,0.84-2.68,2.22-3.18,3.83c-1.59,0.01-3.12,0.66-4.33,1.85 c-1.27,1.25-2.02,2.93-2.06,4.65c-3.16,1-5.16,4.48-4.45,7.77c-2.02,1.16-3,2.86-2.97,5.19c0.02,1.45,0.62,2.5,0.94,2.96 c-0.95,0.5-1.64,1.45-1.95,2.7c-0.39,1.57-0.12,3.3,0.67,4.38c-1.88,2.29-1.73,5.55,0.4,8.05c-0.74,1.34-0.98,2.89-0.43,4.84 c0.79,2.51,2.84,2.88,2.84,2.88c-1.21,2.79,0.93,6.79,2.6,7.36c0,0,1.67-23.26,7.2-30.22c0.59,0.59,1.7,1.67,3.86,1.23 c1.88-0.38,2.65-1.02,3.19-2.09c0.18,0.94,0.7,1.81,1.54,2.4c1.71,1.2,4.1,0.79,5.31-0.92c0.13-0.18,0.23-0.38,0.32-0.57 c0.46,1.57,1.54,2.81,3.27,3.05c1.71,0.23,3.32-0.59,4.2-1.95c0.4,0.67,1.57,2.34,3.7,2.34c2.14,0,3.38-1.67,3.78-2.34 c0.88,1.36,2.49,2.19,4.2,1.95c1.73-0.24,2.74-1.48,3.2-3.05c0.09,0.2,0.19,0.39,0.32,0.57c1.21,1.71,3.6,2.12,5.31,0.92 c0.84-0.59,1.36-1.46,1.54-2.4c0.53,1.06,1.48,2.26,4.15,1.95c2.09-0.24,2.9-1.67,2.9-1.67c4.66,5.61,7.26,30.8,7.26,30.8 c1.35-0.49,3.09-3.94,3.14-6.99c1.4-0.83,2.35-2.06,2.67-3.9c0.33-1.84-0.11-2.85-0.85-4.19C103.75,47.71,103.9,44.45,102.02,42.16z " fill="#3C2C23"/>
  <radialGradient id="hairHighlights_2_" cx="64.5344" cy="43.7707" gradientUnits="userSpaceOnUse" r="40.5079">
    <stop offset="0.7247" stop-color="#554138" stop-opacity="0"/>
    <stop offset="1" stop-color="#554138"/>
  </radialGradient>
  <path id="hairHighlights_1_" d="M102.02,42.16c0.79-1.08,1.06-2.81,0.67-4.38 c-0.31-1.26-1-2.21-1.95-2.7c0.33-0.46,0.93-1.5,0.94-2.96c0.03-2.33-0.94-4.03-2.97-5.19c0.71-3.29-1.28-6.77-4.45-7.77 c-0.04-1.71-0.78-3.4-2.06-4.65c-1.21-1.18-2.74-1.84-4.33-1.85c-0.5-1.6-1.65-2.99-3.18-3.83c-1.47-0.8-3.11-1.01-4.63-0.59 c-1.75-2.79-5.49-3.81-8.36-2.28c-1.73-1.77-4.41-2.39-6.73-1.53l0,0c-0.25,0.1-0.67,0.32-0.97,0.49c-0.3-0.17-0.71-0.39-0.97-0.49 l0,0c-2.32-0.86-5-0.24-6.73,1.53c-2.87-1.53-6.61-0.51-8.36,2.28c-1.53-0.42-3.16-0.22-4.63,0.59c-1.53,0.84-2.68,2.22-3.18,3.83 c-1.59,0.01-3.12,0.66-4.33,1.85c-1.27,1.25-2.02,2.93-2.06,4.65c-3.16,1-5.16,4.48-4.45,7.77c-2.02,1.16-3,2.86-2.97,5.19 c0.02,1.45,0.62,2.5,0.94,2.96c-0.95,0.5-1.64,1.45-1.95,2.7c-0.39,1.57-0.12,3.3,0.67,4.38c-1.88,2.29-1.73,5.55,0.4,8.05 c-0.74,1.34-0.98,2.89-0.43,4.84c0.79,2.51,2.84,2.88,2.84,2.88c-1.21,2.79,0.93,6.79,2.6,7.36c0,0,1.67-23.26,7.2-30.22 c0.59,0.59,1.7,1.67,3.86,1.23c1.88-0.38,2.65-1.02,3.19-2.09c0.18,0.94,0.7,1.81,1.54,2.4c1.71,1.2,4.1,0.79,5.31-0.92 c0.13-0.18,0.23-0.38,0.32-0.57c0.46,1.57,1.54,2.81,3.27,3.05c1.71,0.23,3.32-0.59,4.2-1.95c0.4,0.67,1.57,2.34,3.7,2.34 c2.14,0,3.38-1.67,3.78-2.34c0.88,1.36,2.49,2.19,4.2,1.95c1.73-0.24,2.74-1.48,3.2-3.05c0.09,0.2,0.19,0.39,0.32,0.57 c1.21,1.71,3.6,2.12,5.31,0.92c0.84-0.59,1.36-1.46,1.54-2.4c0.53,1.06,1.48,2.26,4.15,1.95c2.09-0.24,2.9-1.67,2.9-1.67 c4.66,5.61,7.26,30.8,7.26,30.8c1.35-0.49,3.09-3.94,3.14-6.99c1.4-0.83,2.35-2.06,2.67-3.9c0.33-1.84-0.11-2.85-0.85-4.19 C103.75,47.71,103.9,44.45,102.02,42.16z" fill="url(#hairHighlights_2_)"/>
</svg>

<svg viewBox="0 0 128 128" xmlns="http://www.w3.org/2000/svg">
  <defs>
    <linearGradient id="shirt_1_" gradientTransform="matrix(1 0 0 -1 0 0)" gradientUnits="userSpaceOnUse" x1="64" x2="64" y1="-94.2214" y2="-121.9804">
      <stop offset="0" stop-color="#00BFA5"/>
      <stop offset="0.7047" stop-color="#00B29A"/>
      <stop offset="1" stop-color="#00AB94"/>
    </linearGradient>
    <radialGradient id="hairHighlights_2_" cx="64.5344" cy="43.7707" gradientUnits="userSpaceOnUse" r="40.5079">
      <stop offset="0.7247" stop-color="#554138" stop-opacity="0"/>
      <stop offset="1" stop-color="#554138"/>
    </radialGradient>
  </defs>
  <path id="shirt" d="M114.39,119.87 L114.39,123.94 L13.61,123.94 L13.61,119.87 C13.61,107.48 25.73,100.06 41.53,96.67 C48.54,95.15 56.28,94.44 64,94.43 L64.12,94.43 C71.78,94.43 79.43,95.22 86.36,96.8 C102.25,100.4 114.39,108.12 114.39,119.87 Z" fill="url(#shirt_1_)"/>
  <path id="neck_1_" d="M72.89,90.06 L55.1,90.06 L55.1,100.04 C55.1,104.55 58.72,108.21 63.19,108.21 L64.81,108.21 C69.27,108.21 72.9,104.55 72.9,100.04 L72.89,90.06 L72.89,90.06 Z" fill="#7A4C32"/>
  <path id="ears" d="M91.34,50.42 L36.69,50.42 C30.8,50.42 25.98,55.56 25.98,61.83 C25.98,68.11 30.8,73.24 36.69,73.24 L91.34,73.24 C97.23,73.24 102.05,68.1 102.05,61.83 C102.05,55.55 97.23,50.42 91.34,50.42 Z" fill="#7A4C32"/>
  <path id="head" d="M64.02,10.05 C46.62,10.05 30.5,28.66 30.5,55.44 C30.5,82.08 47.11,95.25 64.02,95.25 C80.93,95.25 97.54,82.08 97.54,55.44 C97.54,28.66 81.42,10.05 64.02,10.05 Z" fill="#A56C43"/>
  <path d="M39.84,50.73 C43.02,46.22 50.5,46.07 54.25,49.91 C54.9,50.58 55.59,51.44 55.1,52.41 C54.56,53.48 53.45,53.31 52.54,52.94 C50.11,51.96 47.6,51.52 44.99,52.05 C43.86,52.28 42.89,52.75 41.82,53.13 C40.38,53.62 38.91,52.12 39.84,50.73 Z" fill="#42312C"/>
  <path d="M86.29,53.13 C84.06,52.16 81.8,51.6 79.34,51.88 C78.22,52.01 77.12,52.3 76.08,52.71 C75.25,53.04 74.36,53.57 73.5,52.99 C71.05,51.3 75.39,48.55 76.67,48 C79.43,46.81 82.72,46.92 85.39,48.31 C86.45,48.86 87.6,49.66 88.23,50.71 C89.02,52.02 87.84,53.76 86.29,53.13 Z" fill="#42312C"/>
  <path d="M52.32,58.8 A4.93 5.1 0 1 1 42.46,58.8 A4.93 5.1 0 1 1 52.32,58.8 Z" fill="#42312C"/>
  <path d="M85.58,58.8 A4.93 5.1 0 1 1 75.72,58.8 A4.93 5.1 0 1 1 85.58,58.8 Z" fill="#42312C"/>
  <path id="nose" d="M67.87,68.04 C67.76,68 67.66,67.97 67.55,67.96 L60.48,67.96 C60.37,67.97 60.26,68 60.16,68.04 C59.52,68.3 59.17,68.96 59.47,69.67 C59.77,70.38 61.18,72.36 64.02,72.36 C66.86,72.36 68.27,70.37 68.57,69.67 C68.87,68.96 68.51,68.3 67.87,68.04 Z" fill="#875334"/>
  <path id="mouth" d="M72.44,76.13 C69.25,78.02 58.81,78.02 55.63,76.13 C53.8,75.04 51.93,76.71 52.69,78.37 C53.44,80 59.14,83.79 64.06,83.79 C68.98,83.79 74.6,80 75.35,78.37 C76.11,76.7 74.26,75.04 72.44,76.13 Z" fill="#473530"/>
  <path id="hair" d="M102.02,42.16 C102.81,41.08 103.08,39.35 102.69,37.78 C102.38,36.52 101.69,35.57 100.74,35.08 C101.07,34.62 101.67,33.58 101.68,32.12 C101.71,29.79 100.74,28.09 98.71,26.93 C99.42,23.64 97.43,20.16 94.26,19.16 C94.22,17.45 93.48,15.76 92.2,14.51 C90.99,13.33 89.46,12.67 87.87,12.66 C87.37,11.06 86.22,9.67 84.69,8.83 C83.22,8.03 81.58,7.82 80.06,8.24 C78.31,5.45 74.57,4.43 71.7,5.96 C69.97,4.19 67.29,3.57 64.97,4.43 L64.97,4.43 C64.72,4.53 64.3,4.75 64,4.92 C63.7,4.75 63.29,4.53 63.03,4.43 L63.03,4.43 C60.71,3.57 58.03,4.19 56.3,5.96 C53.43,4.43 49.69,5.45 47.94,8.24 C46.41,7.82 44.78,8.02 43.31,8.83 C41.78,9.67 40.63,11.05 40.13,12.66 C38.54,12.67 37.01,13.32 35.8,14.51 C34.53,15.76 33.78,17.44 33.74,19.16 C30.58,20.16 28.58,23.64 29.29,26.93 C27.27,28.09 26.29,29.79 26.32,32.12 C26.34,33.57 26.94,34.62 27.26,35.08 C26.31,35.58 25.62,36.53 25.31,37.78 C24.92,39.35 25.19,41.08 25.98,42.16 C24.1,44.45 24.25,47.71 26.38,50.21 C25.64,51.55 25.4,53.1 25.95,55.05 C26.74,57.56 28.79,57.93 28.79,57.93 C27.58,60.72 29.72,64.72 31.39,65.29 C31.39,65.29 33.06,42.03 38.59,35.07 C39.18,35.66 40.29,36.74 42.45,36.3 C44.33,35.92 45.1,35.28 45.64,34.21 C45.82,35.15 46.34,36.02 47.18,36.61 C48.89,37.81 51.28,37.4 52.49,35.69 C52.62,35.51 52.72,35.31 52.81,35.12 C53.27,36.69 54.35,37.93 56.08,38.17 C57.79,38.4 59.4,37.58 60.28,36.22 C60.68,36.89 61.85,38.56 63.98,38.56 C66.12,38.56 67.36,36.89 67.76,36.22 C68.64,37.58 70.25,38.41 71.96,38.17 C73.69,37.93 74.7,36.69 75.16,35.12 C75.25,35.32 75.35,35.51 75.48,35.69 C76.69,37.4 79.08,37.81 80.79,36.61 C81.63,36.02 82.15,35.15 82.33,34.21 C82.86,35.27 83.81,36.47 86.48,36.16 C88.57,35.92 89.38,34.49 89.38,34.49 C94.04,40.1 96.64,65.29 96.64,65.29 C97.99,64.8 99.73,61.35 99.78,58.3 C101.18,57.47 102.13,56.24 102.45,54.4 C102.78,52.56 102.34,51.55 101.6,50.21 C103.75,47.71 103.9,44.45 102.02,42.16 Z" fill="#3C2C23"/>
  <path id="hairHighlights_1_" d="M102.02,42.16 C102.81,41.08 103.08,39.35 102.69,37.78 C102.38,36.52 101.69,35.57 100.74,35.08 C101.07,34.62 101.67,33.58 101.68,32.12 C101.71,29.79 100.74,28.09 98.71,26.93 C99.42,23.64 97.43,20.16 94.26,19.16 C94.22,17.45 93.48,15.76 92.2,14.51 C90.99,13.33 89.46,12.67 87.87,12.66 C87.37,11.06 86.22,9.67 84.69,8.83 C83.22,8.03 81.58,7.82 80.06,8.24 C78.31,5.45 74.57,4.43 71.7,5.96 C69.97,4.19 67.29,3.57 64.97,4.43 L64.97,4.43 C64.72,4.53 64.3,4.75 64,4.92 C63.7,4.75 63.29,4.53 63.03,4.43 L63.03,4.43 C60.71,3.57 58.03,4.19 56.3,5.96 C53.43,4.43 49.69,5.45 47.94,8.24 C46.41,7.82 44.78,8.02 43.31,8.83 C41.78,9.67 40.63,11.05 40.13,12.66 C38.54,12.67 37.01,13.32 35.8,14.51 C34.53,15.76 33.78,17.44 33.74,19.16 C30.58,20.16 28.58,23.64 29.29,26.93 C27.27,28.09 26.29,29.79 26.32,32.12 C26.34,33.57 26.94,34.62 27.26,35.08 C26.31,35.58 25.62,36.53 25.31,37.78 C24.92,39.35 25.19,41.08 25.98,42.16 C24.1,44.45 24.25,47.71 26.38,50.21 C25.64,51.55 25.4,53.1 25.95,55.05 C26.74,57.56 28.79,57.93 28.79,57.93 C27.58,60.72 29.72,64.72 31.39,65.29 C31.39,65.29 33.06,42.03 38.59,35.07 C39.18,35.66 40.29,36.74 42.45,36.3 C44.33,35.92 45.1,35.28 45.64,34.21 C45.82,35.15 46.34,36.02 47.18,36.61 C48.89,37.81 51.28,37.4 52.49,35.69 C52.62,35.51 52.72,35.31 52.81,35.12 C53.27,36.69 54.35,37.93 56.08,38.17 C57.79,38.4 59.4,37.58 60.28,36.22 C60.68,36.89 61.85,38.56 63.98,38.56 C66.12,38.56 67.36,36.89 67.76,36.22 C68.64,37.58 70.25,38.41 71.96,38.17 C73.69,37.93 74.7,36.69 75.16,35.12 C75.25,35.32 75.35,35.51 75.48,35.69 C76.69,37.4 79.08,37.81 80.79,36.61 C81.63,36.02 82.15,35.15 82.33,34.21 C82.86,35.27 83.81,36.47 86.48,36.16 C88.57,35.92 89.38,34.49 89.38,34.49 C94.04,40.1 96.64,65.29 96.64,65.29 C97.99,64.8 99.73,61.35 99.78,58.3 C101.18,57.47 102.13,56.24 102.45,54.4 C102.78,52.56 102.34,51.55 101.6,50.21 C103.75,47.71 103.9,44.45 102.02,42.16 Z" fill="url(#hairHighlights_2_)"/>
</svg>
